X:1465
T:Widele, wedele
C:anon.
O:Germany
R:German waltz
Z:Transcribed by Frank Nordberg - http://www.musicaviva.com
F:http://abc.musicaviva.com/tunes/germany/widele-wedele.abc
M:3/4
L:1/4
Q:1/4=180
K:G
"G"d>dd|"G"d>cB|"D7"c2c|"D7"c>BA|"G"G2G|
w:Wi-de-le, we-de-le, hin-term St\"a-de-le h\"alt der
"G"G>AB|[1"D"(A2d)|"D7"d2 z:|[2"D7"A3|"G"G2 z||
w:Bet-tel-mann Hoch--zeit, Hoch-zeit.
"G"G2D|"G"B>AG|"D"A2D|"D"c>BA|
w:Pfeift das Ma\"u-se-le, tanzt das L\"au-se-le,
"G"B2G|"G"d>cB|"D"(A2d)|"D7"d2 z|
w:schl\"agt das I-ge-le Trom--mel:
"G"d2d|"G"d>cB|"D7"c>cc|"D7"(c>B)A|
w:Al-le Tie-re, die We-de-le ha--ben,
"G"G2G|"G"(GA)B|"D7"A3|"G"G2 z|]
w:sind zur Hoch--zeit kom-men.
W:
W:Widele, wedele, hinterm St\"adele
W:h\"alt der Bettelmann Hochzeit.
W:Pfeift das Ma\"usele,
W:tanzt das L\"ausele,
W:schl\"agt das Igele Trommel:
W:Alle Tiere, die Wedele haben,
W:sind zur Hochzeit kommen.
W:
W:
W:  From Musica Viva - http://www.musicaviva.com
W:  the Internet center for free sheet music downloads.


